RemoteHolder/RemoteClampLong.svg

<?xml version="1.0" encoding="UTF-8" standalone="no"?>
<!-- Created with Inkscape (http://www.inkscape.org/) -->

<svg
   width="210mm"
   height="297mm"
   viewBox="0 0 210 297"
   version="1.1"
   id="svg1"
   inkscape:version="1.3.2 (091e20e, 2023-11-25, custom)"
   sodipodi:docname="RemoteClampLong.svg"
   xmlns:inkscape="http://www.inkscape.org/namespaces/inkscape"
   xmlns:sodipodi="http://sodipodi.sourceforge.net/DTD/sodipodi-0.dtd"
   xmlns="http://www.w3.org/2000/svg"
   xmlns:svg="http://www.w3.org/2000/svg">
  <sodipodi:namedview
     id="namedview1"
     pagecolor="#ffffff"
     bordercolor="#000000"
     borderopacity="0.25"
     inkscape:showpageshadow="2"
     inkscape:pageopacity="0.0"
     inkscape:pagecheckerboard="0"
     inkscape:deskcolor="#d1d1d1"
     inkscape:document-units="mm"
     inkscape:zoom="22.150169"
     inkscape:cx="164.17482"
     inkscape:cy="1122.2714"
     inkscape:window-width="1920"
     inkscape:window-height="991"
     inkscape:window-x="-9"
     inkscape:window-y="-9"
     inkscape:window-maximized="1"
     inkscape:current-layer="layer1" />
  <defs
     id="defs1" />
  <g
     inkscape:label="Layer 1"
     inkscape:groupmode="layer"
     id="layer1">
    <path
       id="path2"
       style="fill:#4d4d4d;fill-opacity:0.442348;stroke:none;stroke-width:0.27984;stroke-opacity:1"
       d="m -43.23655,291.47745 c -0.201407,0.0273 -0.582345,0.43928 -1.287777,1.54513 l -0.0155,0.0129 c -1.053663,1.1191 -1.441767,2.47926 -1.346171,3.81682 7.65e-4,0.011 0.0023,0.022 0.0031,0.0331 0.0089,0.11497 0.02021,0.22973 0.03617,0.34417 0.0073,0.0531 0.01708,0.10572 0.02584,0.15864 0.0121,0.072 0.02345,0.14387 0.03824,0.21549 0.01544,0.0757 0.03432,0.15067 0.05271,0.22583 0.01274,0.0515 0.02465,0.10325 0.03876,0.15451 0.02544,0.0933 0.05437,0.18581 0.08423,0.27802 0.0086,0.0263 0.01637,0.0528 0.02532,0.0791 0.08389,0.24778 0.183582,0.49046 0.297656,0.72708 0.08588,0.17813 0.188134,0.34742 0.289905,0.51729 0.04354,0.0727 0.0824,0.1476 0.128674,0.21859 0.134962,0.20678 0.279525,0.40692 0.436666,0.59686 0.0071,0.009 0.01404,0.0173 0.02119,0.0258 0.152571,0.1825 0.314468,0.3561 0.485758,0.51986 0.05279,0.051 0.105762,0.10133 0.160197,0.15038 0.01451,0.0129 0.02879,0.026 0.04341,0.0388 0.94338,0.83428 2.121265,1.37498 3.395142,1.40456 h 0.905888 c 0.344049,0.0126 0.707353,0.007 1.070735,0 h 0.981336 23.837304 v 0.0181 h 26.753406 v -0.0181 H 37.373 38.354335 c 0.363385,0.007 0.726686,0.0126 1.070736,0 h 0.905888 c 1.273874,-0.0296 2.451762,-0.57028 3.395141,-1.40456 0.01462,-0.0128 0.0289,-0.0258 0.04341,-0.0388 0.05443,-0.049 0.107404,-0.0994 0.160197,-0.15038 0.17129,-0.16376 0.333186,-0.33736 0.485759,-0.51986 0.0071,-0.009 0.01408,-0.0172 0.02119,-0.0258 0.157144,-0.18994 0.301705,-0.39008 0.436666,-0.59686 0.04627,-0.071 0.08514,-0.1459 0.128674,-0.21859 0.101772,-0.16987 0.204026,-0.33916 0.289905,-0.51729 0.1147,-0.23791 0.215034,-0.48203 0.299207,-0.73122 0.0065,-0.0192 0.01225,-0.0386 0.0186,-0.0579 0.03198,-0.0978 0.06239,-0.19602 0.0894,-0.29508 0.0141,-0.0513 0.02602,-0.10297 0.03876,-0.15451 0.01839,-0.0752 0.03727,-0.15014 0.05271,-0.22583 0.01479,-0.0716 0.02614,-0.14349 0.03824,-0.21549 0.0088,-0.0531 0.01854,-0.1059 0.02584,-0.15916 0.01428,-0.10244 0.02443,-0.2051 0.03307,-0.30799 0.0021,-0.0257 0.0055,-0.0513 0.0072,-0.077 0.09339,-1.3349 -0.295723,-2.69176 -1.347205,-3.80855 l -0.0155,-0.0129 c -1.130422,-1.77208 -1.422925,-1.75191 -1.488798,-1.24592 l -0.01085,-0.009 v 5.2e-4 c -0.0674,0.37374 -0.05555,0.72768 -0.0036,1.07229 -4.71e-4,0.0683 0.0055,0.14994 0.0016,0.21084 0.02095,0.0304 0.03825,0.0619 0.05839,0.0925 0.21739,0.97446 0.715468,1.88719 0.803568,2.92954 -0.05779,1.56864 -0.804434,3.09372 -1.968355,4.12843 -0.989637,0.77675 -2.24038,1.23838 -3.49281,1.30793 H 37.69081 13.225636 v -0.0119 H 7.5427791 c -0.00485,-3.4e-4 -0.00962,-0.002 -0.014469,-0.002 h -4.714441 c 8.93e-4,6.5e-4 0.00169,0.001 0.00258,0.002 h -5.624979 c 8.92e-4,-6.5e-4 0.00169,-10e-4 0.00258,-0.002 h -4.714441 c -0.00485,3.6e-4 -0.00962,0.002 -0.01447,0.002 H -13.52777 v 0.0119 h -24.155114 -0.740523 c -1.25243,-0.0696 -2.503174,-0.53118 -3.492811,-1.30793 -1.163919,-1.03471 -1.910564,-2.55979 -1.968355,-4.12843 0.08813,-1.04272 0.586824,-1.95573 0.804085,-2.93058 0.01994,-0.0303 0.03715,-0.0614 0.05788,-0.0915 -0.0038,-0.0593 0.0022,-0.13886 0.0016,-0.20516 0.05268,-0.34637 0.06413,-0.7022 -0.0036,-1.07797 v -5.2e-4 l -0.01085,0.009 c -0.02477,-0.19023 -0.07968,-0.31564 -0.201021,-0.29921 z" />
  </g>
</svg>

<?xml version="1.0" encoding="UTF-8" standalone="no"?>
<!-- Created with Inkscape (http://www.inkscape.org/) -->

<svg
   width="210mm"
   height="297mm"
   viewBox="0 0 210 297"
   version="1.1"
   id="svg1"
   inkscape:version="1.3 (0e150ed6c4, 2023-07-21)"
   sodipodi:docname="RemoteClampLong.svg"
   xmlns:inkscape="http://www.inkscape.org/namespaces/inkscape"
   xmlns:sodipodi="http://sodipodi.sourceforge.net/DTD/sodipodi-0.dtd"
   xmlns="http://www.w3.org/2000/svg"
   xmlns:svg="http://www.w3.org/2000/svg">
  <sodipodi:namedview
     id="namedview1"
     pagecolor="#ffffff"
     bordercolor="#000000"
     borderopacity="0.25"
     inkscape:showpageshadow="2"
     inkscape:pageopacity="0.0"
     inkscape:pagecheckerboard="0"
     inkscape:deskcolor="#d1d1d1"
     inkscape:document-units="mm"
     inkscape:zoom="3.9156337"
     inkscape:cx="104.83616"
     inkscape:cy="1246.1585"
     inkscape:window-width="3840"
     inkscape:window-height="2054"
     inkscape:window-x="3829"
     inkscape:window-y="-11"
     inkscape:window-maximized="1"
     inkscape:current-layer="layer1" />
  <defs
     id="defs1" />
  <g
     inkscape:label="Layer 1"
     inkscape:groupmode="layer"
     id="layer1">
    <path
       id="path1"
       style="fill:#4d4d4d;fill-opacity:0.442348;stroke:none;stroke-width:0.27984;stroke-opacity:1"
       d="M -42.96637 291.38687 C -43.071475 291.39554 -43.176206 291.41626 -43.277462 291.44216 L -44.3637 292.16356 C -45.070665 292.91444 -45.552411 294.1651 -45.768266 295.31169 C -45.868379 295.74482 -45.905178 296.18601 -45.891772 296.62686 C -45.890404 296.69839 -45.894927 296.77664 -45.890222 296.8439 C -45.888522 296.8696 -45.885087 296.89519 -45.882987 296.92089 C -45.874347 297.02378 -45.864195 297.12645 -45.849915 297.22889 C -45.842615 297.28215 -45.832876 297.33495 -45.824076 297.38805 C -45.811976 297.46005 -45.800626 297.53194 -45.785836 297.60354 C -45.770396 297.67923 -45.751516 297.75417 -45.733126 297.82937 C -45.720386 297.88091 -45.708468 297.93258 -45.694368 297.98388 C -45.667359 298.08294 -45.636948 298.18115 -45.604968 298.27895 C -45.598618 298.29825 -45.592865 298.31763 -45.586365 298.33683 C -45.502192 298.58602 -45.401858 298.83014 -45.287158 299.06805 C -45.201279 299.24618 -45.099025 299.41546 -44.997253 299.58533 C -44.953719 299.65802 -44.914849 299.73292 -44.868579 299.80392 C -44.733618 300.0107 -44.589057 300.21085 -44.431913 300.40079 C -44.424803 300.40939 -44.417826 300.41762 -44.410726 300.42662 C -44.258153 300.60912 -44.096257 300.78273 -43.924967 300.94649 C -43.872175 300.99747 -43.8192 301.04787 -43.764771 301.09687 C -43.750261 301.10987 -43.735982 301.12282 -43.721362 301.13562 C -42.895137 301.8663 -41.888886 302.37141 -40.795959 302.50557 C -40.64099 302.52459 -40.484416 302.53651 -40.326221 302.54019 C -40.325182 302.54021 -40.324159 302.54017 -40.32312 302.54019 L -39.420333 302.54019 L -39.417232 302.54019 C -39.074068 302.55265 -38.71193 302.54717 -38.349597 302.54019 C -38.348545 302.54017 -38.347549 302.54021 -38.346497 302.54019 L -37.368262 302.54019 L -37.365161 302.54019 L -13.527856 302.54019 L -13.527856 302.55828 L -13.220898 302.55828 L 13.225549 302.55828 L 13.532507 302.55828 L 13.532507 302.54019 L 37.372913 302.54019 L 38.351147 302.54019 L 38.354248 302.54019 C 38.716577 302.54716 39.078831 302.55275 39.421883 302.54019 C 39.42288 302.54015 39.423987 302.54023 39.424984 302.54019 L 40.327771 302.54019 C 40.487005 302.53649 40.644646 302.52481 40.80061 302.50557 C 41.893537 302.37141 42.899788 301.8663 43.726013 301.13562 C 43.740633 301.12282 43.754911 301.10987 43.769421 301.09687 C 43.823851 301.04787 43.876825 300.99747 43.929618 300.94649 C 44.100908 300.78273 44.262804 300.60912 44.415377 300.42662 C 44.422477 300.41762 44.429454 300.40939 44.436564 300.40079 C 44.593708 300.21085 44.738269 300.0107 44.87323 299.80392 C 44.9195 299.73292 44.95837 299.65802 45.001904 299.58533 C 45.103676 299.41546 45.20593 299.24618 45.291809 299.06805 C 45.406509 298.83014 45.506843 298.58602 45.591016 298.33683 C 45.597516 298.31763 45.603269 298.29825 45.609619 298.27895 C 45.641599 298.18115 45.672009 298.08294 45.699019 297.98388 C 45.713119 297.93258 45.725037 297.88091 45.737777 297.82937 C 45.756167 297.75417 45.775047 297.67923 45.790487 297.60354 C 45.805277 297.53194 45.816627 297.46005 45.828727 297.38805 C 45.837527 297.33495 45.847265 297.28215 45.854565 297.22889 C 45.868845 297.12645 45.878998 297.02378 45.887638 296.92089 C 45.889738 296.89519 45.893173 296.8696 45.894873 296.8439 C 45.899847 296.7728 45.895693 296.69032 45.89694 296.61445 C 45.909272 296.176 45.872435 295.73722 45.7724 295.30652 C 45.556055 294.16132 45.074262 292.91332 44.368351 292.16356 L 43.282113 291.44216 C 42.87709 291.33857 42.418647 291.31648 42.088904 291.82818 C 41.883191 292.14741 42.012171 292.53375 42.216545 292.78058 C 42.398042 292.99977 43.025467 292.99086 43.027348 293.05085 C 43.027338 293.051 43.027357 293.05121 43.027348 293.05136 C 43.048078 293.08146 43.065285 293.11253 43.085225 293.14283 C 43.302486 294.11768 43.801181 295.03068 43.889311 296.0734 C 43.83152 297.64204 43.084873 299.16712 41.920955 300.20183 C 40.931319 300.97858 39.680574 301.44016 38.428145 301.50976 L 37.690723 301.50976 L 13.532507 301.50976 L 13.532507 301.49788 L 13.225549 301.49788 L 7.5426921 301.49788 C 7.5378421 301.49754 7.5330717 301.49581 7.5282227 301.49581 L 7.5251221 301.49581 L 2.8137817 301.49581 L 2.8106812 301.49581 C 2.8115712 301.49681 2.812373 301.49723 2.813265 301.49788 L -2.8086141 301.49788 C -2.8077221 301.49723 -2.8069203 301.49681 -2.8060303 301.49581 L -2.8091309 301.49581 L -7.5204712 301.49581 L -7.5235718 301.49581 C -7.5284208 301.49581 -7.5331912 301.49754 -7.5380412 301.49788 L -13.220898 301.49788 L -13.527856 301.49788 L -13.527856 301.50976 L -37.682971 301.50976 L -37.686072 301.50976 L -38.423494 301.50976 C -39.675923 301.44016 -40.926669 300.97858 -41.916305 300.20183 C -43.080222 299.16712 -43.826869 297.64204 -43.88466 296.0734 C -43.79653 295.03068 -43.297835 294.11768 -43.080575 293.14283 C -43.060635 293.11253 -43.043427 293.08146 -43.022697 293.05136 C -43.022707 293.05121 -43.022687 293.051 -43.022697 293.05085 C -43.020825 292.99086 -42.393392 292.99977 -42.211894 292.78058 C -42.00752 292.53375 -41.87854 292.14741 -42.084253 291.82818 C -42.331561 291.44441 -42.651053 291.36085 -42.96637 291.38687 z " />
  </g>
</svg>
